X: 2040
T: Zehram Bana Görünsün
C: Yesârî Âsım Arsoy
O: Turkey
F: http://compmusic.upf.edu/node/140
N: muhayyer--turku--duyek--zehram_bana--yesari_asim_arsoy
N: makam= muhayyer
N: form= turku
N: usul= duyek = 8/4
M: 8/4
L: 1/16
K: C _2/4B ^3/4f  
Q: 1/4=132
%%MIDI tuningsystem comma53
.c'2 .c'2 c'2 c'b c'2 a4 a2  | .c'2 .c'2 c'2 c'b c'2 a4 a2  | \
w:  Zeh ram  ba na  *  gö rün sün    |  Saç lar  yer de  *  sü rün sün    | 
c'c'3 c'2 c'b c'2 a4 a2  | 
w:  Ge lin  gi bi  *  yü rü sün    | 
ag ab g2 gf g2 e4 e2  | dc de c2 cB c2 A4 A2  | \
w:  Ge *  lin  *  gi bi  *  yü rü sün    |  Ge *  lin  *  gi bi  *  yü rü sün    | 
dc de cB cd BA Bc A3G  | 
w:  SAZ  | 
dc de cB cd BA Bc d/e/f/g/ a2  | .c'2 .c'2 c'2 c'b c'2 a4 a2  | 
w:   |  Al  yaz ma ya  *  bü rün sün    | 
.c'2 .c'2 c'2 c'b c'2 a4 a2  | ag ab g2 gf g2 e4 e2  | \
w:  Al  yaz ma ya  *  bü rün sün    |  Gel *  sin  *  koy nu *  ma  gir sin    | 
dc de c2 cB c2 A4 A2  | 
w:  Gel *  sin  *  koy nu *  ma  gir sin    | 
a2 ab g2 ga f3/2e/ fg e3d  | aa2b gg a2 f3/2e/ fg e3d  | 
w:  El le ri  bel le ri  gül *  le ri  yâr    |  Gö rün dü  sa çı nın  tel *  le ri  yâr    | 
aa b2 g3/2f/ ga f3/2e/ fg e3d  | _3/4ed ed ed ed ed ed d4  | 
w:  Sü pü rür  fis *  ta nı  yer *  le ri  yâr    |  Sür *  me li  sür *  me li  sür *  me li  yâr    | 
c2 cd B3/2A/ Bc B3/2A/ Bc A4  | _3/4ed ed ed ed ed ed d4  | 
w:  Öp me li  sev *  me li  sar *  ma lı  yâr    |  Sür *  me li  sür *  me li  sür *  me li  yâr    | 
c2 cd B3/2A/ Bc B3/2A/ Bc A4  | .c'2 .c'2 c'2 c'b c'2 a4 a2  | \
w:  Öp me li  sev *  me li  sar *  ma lı  yâr    |  Zeh ram  ba na  *  gö rün sün    | 
.c'2 .c'2 c'2 c'b c'2 a4 a2  | 
w:  Saç lar  yer de  *  sü rün sün    | 
c'c'3 c'2 c'b c'2 a4 a2  | ag ab g2 gf g2 e4 e2  | \
w:  Ge lin  gi bi  *  yü rü sün    |  Ge *  lin  *  gi bi  *  yü rü sün    | 
dc de c2 cB c2 A4 A2  | 
w:  Ge *  lin  *  gi bi  *  yü rü sün    | 
dc de cB cd BA Bc A3G  | dc de cB cd BA Bc d/e/f/g/ a2  | 
w:  SAZ  |   | 
.c'2 .c'2 c'2 c'b c'2 a4 a2  | .c'2 .c'2 c'2 c'b c'2 a4 a2  | \
w:  Al  yaz ma ya  *  bü rün sün    |  Al  yaz ma ya  *  bü rün sün    | 
ag ab g2 gf g2 e4 e2  | 
w:  Gel *  sin  *  koy nu *  ma  gir sin    | 
dc de c2 cB c2 A4 A2  | a2 ab g2 ga f3/2e/ fg e3d  | 
w:  Gel *  sin  *  koy nu *  ma  gir sin    |  El le ri  bel le ri  gül *  le ri  yâr    | 
aa2b gg a2 f3/2e/ fg e3d  | aa b2 g3/2f/ ga f3/2e/ fg e3d  | 
w:  Gö rün dü  sa çı nın  tel *  le ri  yâr    |  Sü pü rür  fis *  ta nı  yer *  le ri  yâr    | 
_3/4ed ed ed ed ed ed d4  | c2 cd B3/2A/ Bc B3/2A/ Bc A4  | 
w:  Sür *  me li  sür *  me li  sür *  me li  yâr    |  Öp me li  sev *  me li  sar *  ma lı  yâr    | 
_3/4ed ed ed ed ed ed d4  | c2 cd B3/2A/ Bc B3/2A/ Bc A4  | 
w:  Sür *  me li  sür *  me li  sür *  me li  yâr    |  Öp me li  sev *  me li  sar *  ma lı  yâr    | 
|


